icons/bhi_checkbox-empty.svg

<svg xmlns="http://www.w3.org/2000/svg" viewBox="0 0 512 512" enable-background="new 0 0 512 512"><path fill="#010101" d="M448 71.1v376.9h-384v-384h384v7.1zm7.3-71.1h-398.4c-31.3 0-56.9 25.6-56.9 56.9v398.3c0 31.3 25.6 56.9 56.9 56.9h398.3c31.3 0 56.9-25.6 56.9-56.9v-398.3c.1-31.3-25.6-56.9-56.8-56.9z"/></svg>

<?xml version="1.0" encoding="utf-8"?>
<!-- Generator: Adobe Illustrator 19.2.0, SVG Export Plug-In . SVG Version: 6.00 Build 0)  -->
<svg version="1.1" id="Layer_1" xmlns="http://www.w3.org/2000/svg" xmlns:xlink="http://www.w3.org/1999/xlink" x="0px" y="0px"
	 viewBox="0 0 512 512" enable-background="new 0 0 512 512" xml:space="preserve">
<path fill="#010101" d="M448,71.1V448H64V64h384V71.1z M455.3,0H56.9C25.6,0,0,25.6,0,56.9v398.3c0,31.3,25.6,56.9,56.9,56.9h398.3
	c31.3,0,56.9-25.6,56.9-56.9V56.9C512.2,25.6,486.5,0,455.3,0z"/>
</svg>
